mnt/openstreetmap-carto/symbols/shop/ticket.svg

<?xml version="1.0" encoding="UTF-8" standalone="no"?>
<svg
   xmlns:dc="http://purl.org/dc/elements/1.1/"
   xmlns:cc="http://creativecommons.org/ns#"
   xmlns:rdf="http://www.w3.org/1999/02/22-rdf-syntax-ns#"
   xmlns:svg="http://www.w3.org/2000/svg"
   xmlns="http://www.w3.org/2000/svg"
   viewBox="0 0 14 14"
   height="14"
   width="14"
   id="svg109"
   version="1.1">
  <metadata
     id="metadata115">
    <rdf:RDF>
      <cc:Work
         rdf:about="">
        <dc:format>image/svg+xml</dc:format>
        <dc:type
           rdf:resource="http://purl.org/dc/dcmitype/StillImage" />
        <dc:title></dc:title>
      </cc:Work>
    </rdf:RDF>
  </metadata>
  <defs
     id="defs113" />
  <g
     style="stroke:#000000;stroke-width:1.09789395;stroke-miterlimit:4;stroke-dasharray:none;stroke-opacity:1"
     id="g4"
     transform="matrix(0.12417378,0.12289961,-0.12417378,0.12289961,124.96964,-139.98985)">
    <path
       id="path2"
       transform="matrix(4.026615,-4.026615,4.0683612,4.0683612,66.324647,1072.7339)"
       d="M 0 3 C -4.6565168e-008 3.7499057 -1.6941718e-005 4.8984865 0 6 L 1 6 A 1 1 0 0 1 2 7 A 1 1 0 0 1 1 8 L 0 8 C 4.3807636e-006 9.1015148 5.0290381e-005 10.250089 0 11 C 4.9316399 11.000372 9.7201644 10.999816 14 11 C 13.999998 10.25 13.999999 9.1015632 14 8 L 13 8 A 1 1 0 0 1 12 7 A 1 1 0 0 1 13 6 L 14 6 C 14.000001 4.8984372 14 3.7499979 14 3 C 9.145143 3.0005309 4.1635796 2.9999587 0 3 z M 8 4 L 9 4 L 9 10 L 8 10 L 8 4 z "
       style="color:#000000;font-style:normal;font-variant:normal;font-weight:normal;font-stretch:normal;font-size:medium;line-height:normal;font-family:sans-serif;font-variant-ligatures:normal;font-variant-position:normal;font-variant-caps:normal;font-variant-numeric:normal;font-variant-alternates:normal;font-feature-settings:normal;text-indent:0;text-align:start;text-decoration:none;text-decoration-line:none;text-decoration-style:solid;text-decoration-color:#000000;letter-spacing:normal;word-spacing:normal;text-transform:none;writing-mode:lr-tb;direction:ltr;text-orientation:mixed;dominant-baseline:auto;baseline-shift:baseline;text-anchor:start;white-space:normal;shape-padding:0;clip-rule:nonzero;display:inline;overflow:visible;visibility:visible;opacity:1;isolation:auto;mix-blend-mode:normal;color-interpolation:sRGB;color-interpolation-filters:linearRGB;solid-color:#000000;solid-opacity:1;vector-effect:none;fill:#000000;fill-opacity:1;fill-rule:nonzero;stroke:none;stroke-width:0.19180751;stroke-linecap:butt;stroke-linejoin:miter;stroke-miterlimit:4;stroke-dasharray:none;stroke-dashoffset:0;stroke-opacity:1;color-rendering:auto;image-rendering:auto;shape-rendering:auto;text-rendering:auto;enable-background:accumulate" />
  </g>
</svg>

<svg xmlns="http://www.w3.org/2000/svg" width="14" height="14" viewBox="0 0 14 14">
  <path d="m0,3 v3 h1 a1,1 0 0 1 0,2 h-1 v3 h14 v-3 h-1 a1,1 0 0 1 0,-2 h1 v-3 z m8,1 h1 v6 h-1 z"/>
</svg>
